austria/municipalities/41711.svg

<?xml version="1.0" encoding="UTF-8"?>
<!DOCTYPE svg PUBLIC "-//W3C//DTD SVG 1.1//EN" "http://www.w3.org/Graphics/SVG/1.1/DTD/svg11.dtd">
<svg xmlns="http://www.w3.org/2000/svg" version="1.1" width="166px" height="207px" style="shape-rendering:geometricPrecision; text-rendering:geometricPrecision; image-rendering:optimizeQuality; fill-rule:evenodd; clip-rule:evenodd" xmlns:xlink="http://www.w3.org/1999/xlink">
<g><path style="opacity:1" fill="#000000" d="M -0.5,-0.5 C 54.8333,-0.5 110.167,-0.5 165.5,-0.5C 165.5,44.1667 165.5,88.8333 165.5,133.5C 157.503,172.498 134.169,196.831 95.5,206.5C 86.8333,206.5 78.1667,206.5 69.5,206.5C 29.9784,196.644 6.64509,171.644 -0.5,131.5C -0.5,87.5 -0.5,43.5 -0.5,-0.5 Z"/></g>
<g><path style="opacity:1" fill="#fea700" d="M 3.5,3.5 C 11.8333,3.5 20.1667,3.5 28.5,3.5C 28.6667,62.8343 28.5,122.168 28,181.5C 15.6661,168.48 7.66605,153.147 4,135.5C 3.50001,91.5013 3.33334,47.5013 3.5,3.5 Z"/></g>
<g><path style="opacity:1" fill="#002b71" d="M 81.5,4.5 C 81.5,5.16667 81.5,5.83333 81.5,6.5C 80.1667,6.5 78.8333,6.5 77.5,6.5C 77.2322,8.09903 77.5655,9.43236 78.5,10.5C 79.7735,14.9165 80.4401,19.5832 80.5,24.5C 79.5661,45.2389 78.5661,65.9055 77.5,86.5C 76.1667,86.5 74.8333,86.5 73.5,86.5C 72.1085,64.6172 70.7752,42.6172 69.5,20.5C 71.099,20.7678 72.4324,20.4345 73.5,19.5C 72.3157,18.3121 72.3157,17.1455 73.5,16C 72.451,15.5078 71.451,15.6744 70.5,16.5C 69.5258,14.2573 69.1924,11.924 69.5,9.5C 69.44,8.95691 69.1067,8.62358 68.5,8.5C 67.5344,10.396 67.2011,12.396 67.5,14.5C 62.8415,14.0146 61.5081,15.848 63.5,20C 64.448,20.4828 65.448,20.6495 66.5,20.5C 66.1951,42.6547 65.1951,64.6547 63.5,86.5C 61.8333,86.5 60.1667,86.5 58.5,86.5C 57.534,72.209 56.8674,57.8757 56.5,43.5C 57.5,43.5 58.5,43.5 59.5,43.5C 59.4208,42.0695 59.7542,40.7362 60.5,39.5C 59.3112,38.5713 57.9778,38.238 56.5,38.5C 56.9746,35.9179 56.3079,33.9179 54.5,32.5C 54.1667,32.5 53.8333,32.5 53.5,32.5C 53.0617,34.6382 52.8951,36.9715 53,39.5C 51.6124,38.4464 50.1124,38.2797 48.5,39C 50.4665,44.1006 51.4665,49.434 51.5,55C 49.8904,65.3284 49.2237,75.8284 49.5,86.5C 45.8333,86.5 42.1667,86.5 38.5,86.5C 38.5,107.167 38.5,127.833 38.5,148.5C 41.1667,148.5 43.8333,148.5 46.5,148.5C 46.238,149.978 46.5713,151.311 47.5,152.5C 50.8615,154.895 53.5281,157.895 55.5,161.5C 56.4841,164.428 56.8174,167.428 56.5,170.5C 53.5,170.5 50.5,170.5 47.5,170.5C 47.5,175.167 47.5,179.833 47.5,184.5C 46.1667,184.5 44.8333,184.5 43.5,184.5C 43.5,186.833 43.5,189.167 43.5,191.5C 69.1667,191.5 94.8333,191.5 120.5,191.5C 120.5,189.167 120.5,186.833 120.5,184.5C 118.167,184.5 115.833,184.5 113.5,184.5C 113.5,179.833 113.5,175.167 113.5,170.5C 111.167,170.5 108.833,170.5 106.5,170.5C 106.5,167.167 106.5,163.833 106.5,160.5C 108.167,160.5 109.833,160.5 111.5,160.5C 111.22,157.728 111.887,155.228 113.5,153C 115.303,152.363 116.636,151.197 117.5,149.5C 119.743,148.526 122.076,148.192 124.5,148.5C 124.5,127.833 124.5,107.167 124.5,86.5C 121.167,86.5 117.833,86.5 114.5,86.5C 114.763,75.1644 114.097,63.9977 112.5,53C 112.667,49.1667 112.833,45.3333 113,41.5C 115.395,42.7982 116.562,41.9649 116.5,39C 116.185,35.151 114.852,34.651 112.5,37.5C 111.193,35.7768 111.193,33.9435 112.5,32C 111.756,30.9614 110.756,30.4614 109.5,30.5C 108.709,32.3093 108.709,34.3093 109.5,36.5C 108.167,36.5 106.833,36.5 105.5,36.5C 105.5,38.1667 105.5,39.8333 105.5,41.5C 106.5,41.5 107.5,41.5 108.5,41.5C 108.5,47.1667 108.5,52.8333 108.5,58.5C 108.802,61.0593 108.468,63.3926 107.5,65.5C 106.509,72.3134 106.175,79.3134 106.5,86.5C 104.5,86.5 102.5,86.5 100.5,86.5C 100.183,67.9896 99.5162,49.4896 98.5,31C 98.6667,26.8333 98.8333,22.6667 99,18.5C 99.414,18.9574 99.914,19.2907 100.5,19.5C 101.357,18.2643 102.023,16.931 102.5,15.5C 101.051,14.8281 99.7175,14.1614 98.5,13.5C 98.8432,11.5168 98.1765,10.1834 96.5,9.5C 96.0276,11.5313 95.0276,13.1979 93.5,14.5C 92.6236,14.3691 91.9569,14.7025 91.5,15.5C 92.0766,17.5499 93.4099,18.5499 95.5,18.5C 95.5,26.8333 95.5,35.1667 95.5,43.5C 93.9566,49.9223 92.7899,56.589 92,63.5C 91.5003,71.1594 91.3336,78.8261 91.5,86.5C 90.1667,86.5 88.8333,86.5 87.5,86.5C 85.9384,61.5885 84.9384,36.5885 84.5,11.5C 87.5701,11.3066 88.5701,9.97325 87.5,7.5C 84.2053,8.82447 82.872,7.49114 83.5,3.5C 100.167,3.5 116.833,3.5 133.5,3.5C 133.667,63.8343 133.5,124.168 133,184.5C 109.454,203.272 83.2874,207.772 54.5,198C 46.3193,194.659 38.8193,190.159 32,184.5C 31.5,124.168 31.3333,63.8343 31.5,3.5C 48.2439,3.18187 64.9105,3.5152 81.5,4.5 Z"/></g>
<g><path style="opacity:1" fill="#fea700" d="M 83.5,3.5 C 82.872,7.49114 84.2053,8.82447 87.5,7.5C 86.9522,9.53235 85.6188,10.5323 83.5,10.5C 83.0958,31.9344 83.7624,53.2677 85.5,74.5C 83.1667,74.5 80.8333,74.5 78.5,74.5C 80.5464,53.2775 81.5464,31.9442 81.5,10.5C 80.5,10.5 79.5,10.5 78.5,10.5C 79.5981,9.60305 79.5981,8.76971 78.5,8C 79.4491,7.38277 80.2825,7.54943 81,8.5C 81.4643,7.90558 81.631,7.23891 81.5,6.5C 81.5,5.83333 81.5,5.16667 81.5,4.5C 81.8417,3.66175 82.5084,3.32842 83.5,3.5 Z"/></g>
<g><path style="opacity:1" fill="#fea700" d="M 136.5,3.5 C 144.833,3.5 153.167,3.5 161.5,3.5C 161.667,47.8346 161.5,92.1679 161,136.5C 158.509,147.356 154.509,157.69 149,167.5C 145.312,172.186 141.312,176.519 137,180.5C 136.5,121.501 136.333,62.5009 136.5,3.5 Z"/></g>
<g><path style="opacity:1" fill="#000000" d="M 81.5,6.5 C 81.631,7.23891 81.4643,7.90558 81,8.5C 80.2825,7.54943 79.4491,7.38277 78.5,8C 79.5981,8.76971 79.5981,9.60305 78.5,10.5C 77.5655,9.43236 77.2322,8.09903 77.5,6.5C 78.8333,6.5 80.1667,6.5 81.5,6.5 Z"/></g>
<g><path style="opacity:1" fill="#000000" d="M 87.5,7.5 C 88.5701,9.97325 87.5701,11.3066 84.5,11.5C 84.9384,36.5885 85.9384,61.5885 87.5,86.5C 88.8333,86.5 90.1667,86.5 91.5,86.5C 91.3336,78.8261 91.5003,71.1594 92,63.5C 92.7899,56.589 93.9566,49.9223 95.5,43.5C 94.3812,54.7509 93.7145,66.0843 93.5,77.5C 95.5,77.5 97.5,77.5 99.5,77.5C 99.9366,72.6386 99.4366,67.9719 98,63.5C 97.5001,47.8369 97.3334,32.1702 97.5,16.5C 95.5168,16.8432 94.1834,16.1765 93.5,14.5C 95.0276,13.1979 96.0276,11.5313 96.5,9.5C 96.1568,11.4832 96.8235,12.8166 98.5,13.5C 99.7175,14.1614 101.051,14.8281 102.5,15.5C 102.023,16.931 101.357,18.2643 100.5,19.5C 99.914,19.2907 99.414,18.9574 99,18.5C 98.8333,22.6667 98.6667,26.8333 98.5,31C 99.5162,49.4896 100.183,67.9896 100.5,86.5C 102.5,86.5 104.5,86.5 106.5,86.5C 106.175,79.3134 106.509,72.3134 107.5,65.5C 107.5,70.1667 107.5,74.8333 107.5,79.5C 109.5,79.5 111.5,79.5 113.5,79.5C 113.666,75.4862 113.499,71.4862 113,67.5C 111.005,64.7034 110.172,61.5367 110.5,58C 111.105,52.1794 111.438,46.3461 111.5,40.5C 116.275,40.3299 116.608,39.3299 112.5,37.5C 114.852,34.651 116.185,35.151 116.5,39C 116.562,41.9649 115.395,42.7982 113,41.5C 112.833,45.3333 112.667,49.1667 112.5,53C 114.097,63.9977 114.763,75.1644 114.5,86.5C 117.833,86.5 121.167,86.5 124.5,86.5C 124.5,107.167 124.5,127.833 124.5,148.5C 122.076,148.192 119.743,148.526 117.5,149.5C 116.636,151.197 115.303,152.363 113.5,153C 111.887,155.228 111.22,157.728 111.5,160.5C 109.833,160.5 108.167,160.5 106.5,160.5C 106.5,163.833 106.5,167.167 106.5,170.5C 108.833,170.5 111.167,170.5 113.5,170.5C 113.5,175.167 113.5,179.833 113.5,184.5C 115.833,184.5 118.167,184.5 120.5,184.5C 120.5,186.833 120.5,189.167 120.5,191.5C 94.8333,191.5 69.1667,191.5 43.5,191.5C 43.5,189.167 43.5,186.833 43.5,184.5C 44.8333,184.5 46.1667,184.5 47.5,184.5C 47.5,179.833 47.5,175.167 47.5,170.5C 50.5,170.5 53.5,170.5 56.5,170.5C 56.8174,167.428 56.4841,164.428 55.5,161.5C 53.5281,157.895 50.8615,154.895 47.5,152.5C 46.5713,151.311 46.238,149.978 46.5,148.5C 43.8333,148.5 41.1667,148.5 38.5,148.5C 38.5,127.833 38.5,107.167 38.5,86.5C 42.1667,86.5 45.8333,86.5 49.5,86.5C 49.2237,75.8284 49.8904,65.3284 51.5,55C 51.4665,49.434 50.4665,44.1006 48.5,39C 50.1124,38.2797 51.6124,38.4464 53,39.5C 52.8951,36.9715 53.0617,34.6382 53.5,32.5C 53.3691,33.3764 53.7025,34.0431 54.5,34.5C 55.463,34.0302 55.463,33.3635 54.5,32.5C 56.3079,33.9179 56.9746,35.9179 56.5,38.5C 57.9778,38.238 59.3112,38.5713 60.5,39.5C 59.7542,40.7362 59.4208,42.0695 59.5,43.5C 58.5,43.5 57.5,43.5 56.5,43.5C 56.8674,57.8757 57.534,72.209 58.5,86.5C 60.1667,86.5 61.8333,86.5 63.5,86.5C 65.1951,64.6547 66.1951,42.6547 66.5,20.5C 65.448,20.6495 64.448,20.4828 63.5,20C 61.5081,15.848 62.8415,14.0146 67.5,14.5C 67.2011,12.396 67.5344,10.396 68.5,8.5C 69.1067,8.62358 69.44,8.95691 69.5,9.5C 68.5318,11.6074 68.1984,13.9407 68.5,16.5C 66.712,16.2148 65.0453,16.5481 63.5,17.5C 64.6888,18.4287 66.0222,18.762 67.5,18.5C 67.9371,38.3301 67.2704,57.9968 65.5,77.5C 67.5,77.5 69.5,77.5 71.5,77.5C 69.8846,62.6609 68.8846,47.6609 68.5,32.5C 68.8333,27.8333 69.1667,23.1667 69.5,18.5C 70.7362,19.2458 72.0695,19.5792 73.5,19.5C 72.4324,20.4345 71.099,20.7678 69.5,20.5C 70.7752,42.6172 72.1085,64.6172 73.5,86.5C 74.8333,86.5 76.1667,86.5 77.5,86.5C 78.5661,65.9055 79.5661,45.2389 80.5,24.5C 80.4401,19.5832 79.7735,14.9165 78.5,10.5C 79.5,10.5 80.5,10.5 81.5,10.5C 81.5464,31.9442 80.5464,53.2775 78.5,74.5C 80.8333,74.5 83.1667,74.5 85.5,74.5C 83.7624,53.2677 83.0958,31.9344 83.5,10.5C 85.6188,10.5323 86.9522,9.53235 87.5,7.5 Z"/></g>
<g><path style="opacity:1" fill="#fea700" d="M 69.5,9.5 C 69.1924,11.924 69.5258,14.2573 70.5,16.5C 71.451,15.6744 72.451,15.5078 73.5,16C 72.3157,17.1455 72.3157,18.3121 73.5,19.5C 72.0695,19.5792 70.7362,19.2458 69.5,18.5C 69.1667,23.1667 68.8333,27.8333 68.5,32.5C 68.8846,47.6609 69.8846,62.6609 71.5,77.5C 69.5,77.5 67.5,77.5 65.5,77.5C 67.2704,57.9968 67.9371,38.3301 67.5,18.5C 66.0222,18.762 64.6888,18.4287 63.5,17.5C 65.0453,16.5481 66.712,16.2148 68.5,16.5C 68.1984,13.9407 68.5318,11.6074 69.5,9.5 Z"/></g>
<g><path style="opacity:1" fill="#fea700" d="M 96.5,9.5 C 98.1765,10.1834 98.8432,11.5168 98.5,13.5C 96.8235,12.8166 96.1568,11.4832 96.5,9.5 Z"/></g>
<g><path style="opacity:1" fill="#fea700" d="M 93.5,14.5 C 94.1834,16.1765 95.5168,16.8432 97.5,16.5C 97.3334,32.1702 97.5001,47.8369 98,63.5C 99.4366,67.9719 99.9366,72.6386 99.5,77.5C 97.5,77.5 95.5,77.5 93.5,77.5C 93.7145,66.0843 94.3812,54.7509 95.5,43.5C 95.5,35.1667 95.5,26.8333 95.5,18.5C 93.4099,18.5499 92.0766,17.5499 91.5,15.5C 91.9569,14.7025 92.6236,14.3691 93.5,14.5 Z"/></g>
<g><path style="opacity:1" fill="#000000" d="M 109.5,30.5 C 110.219,32.7638 110.552,35.0971 110.5,37.5C 109.167,37.5 107.833,37.5 106.5,37.5C 106.5,38.5 106.5,39.5 106.5,40.5C 107.5,40.5 108.5,40.5 109.5,40.5C 109.823,46.69 109.49,52.69 108.5,58.5C 108.5,52.8333 108.5,47.1667 108.5,41.5C 107.5,41.5 106.5,41.5 105.5,41.5C 105.5,39.8333 105.5,38.1667 105.5,36.5C 106.833,36.5 108.167,36.5 109.5,36.5C 108.709,34.3093 108.709,32.3093 109.5,30.5 Z"/></g>
<g><path style="opacity:1" fill="#fea700" d="M 109.5,30.5 C 110.756,30.4614 111.756,30.9614 112.5,32C 111.193,33.9435 111.193,35.7768 112.5,37.5C 116.608,39.3299 116.275,40.3299 111.5,40.5C 111.438,46.3461 111.105,52.1794 110.5,58C 110.172,61.5367 111.005,64.7034 113,67.5C 113.499,71.4862 113.666,75.4862 113.5,79.5C 111.5,79.5 109.5,79.5 107.5,79.5C 107.5,74.8333 107.5,70.1667 107.5,65.5C 108.468,63.3926 108.802,61.0593 108.5,58.5C 109.49,52.69 109.823,46.69 109.5,40.5C 108.5,40.5 107.5,40.5 106.5,40.5C 106.5,39.5 106.5,38.5 106.5,37.5C 107.833,37.5 109.167,37.5 110.5,37.5C 110.552,35.0971 110.219,32.7638 109.5,30.5 Z"/></g>
<g><path style="opacity:1" fill="#fea700" d="M 53.5,32.5 C 53.8333,32.5 54.1667,32.5 54.5,32.5C 55.463,33.3635 55.463,34.0302 54.5,34.5C 53.7025,34.0431 53.3691,33.3764 53.5,32.5 Z"/></g>
<g><path style="opacity:1" fill="#fea700" d="M 50.5,39.5 C 53.1466,40.0729 55.8133,40.7396 58.5,41.5C 57.675,42.3857 56.675,42.719 55.5,42.5C 55.2279,55.3355 55.8946,68.0021 57.5,80.5C 55.1667,80.5 52.8333,80.5 50.5,80.5C 51.6006,71.7465 52.6006,62.9131 53.5,54C 53.3333,50.1667 53.1667,46.3333 53,42.5C 52.586,42.9574 52.086,43.2907 51.5,43.5C 50.5713,42.3112 50.238,40.9778 50.5,39.5 Z"/></g>
<g><path style="opacity:1" fill="#fea700" d="M 78.5,76.5 C 80.8333,76.5 83.1667,76.5 85.5,76.5C 85.5,79.8333 85.5,83.1667 85.5,86.5C 83.1667,86.5 80.8333,86.5 78.5,86.5C 78.5,83.1667 78.5,79.8333 78.5,76.5 Z"/></g>
<g><path style="opacity:1" fill="#fea700" d="M 65.5,78.5 C 67.5,78.5 69.5,78.5 71.5,78.5C 71.5,81.1667 71.5,83.8333 71.5,86.5C 69.5,86.5 67.5,86.5 65.5,86.5C 65.5,83.8333 65.5,81.1667 65.5,78.5 Z"/></g>
<g><path style="opacity:1" fill="#fea700" d="M 93.5,79.5 C 95.5,79.5 97.5,79.5 99.5,79.5C 99.5,81.8333 99.5,84.1667 99.5,86.5C 97.5,86.5 95.5,86.5 93.5,86.5C 93.5,84.1667 93.5,81.8333 93.5,79.5 Z"/></g>
<g><path style="opacity:1" fill="#fea700" d="M 107.5,80.5 C 109.5,80.5 111.5,80.5 113.5,80.5C 113.5,82.5 113.5,84.5 113.5,86.5C 111.5,86.5 109.5,86.5 107.5,86.5C 107.5,84.5 107.5,82.5 107.5,80.5 Z"/></g>
<g><path style="opacity:1" fill="#fea700" d="M 50.5,81.5 C 52.8333,81.5 55.1667,81.5 57.5,81.5C 57.5,83.1667 57.5,84.8333 57.5,86.5C 55.1667,86.5 52.8333,86.5 50.5,86.5C 50.5,84.8333 50.5,83.1667 50.5,81.5 Z"/></g>
<g><path style="opacity:1" fill="#fea700" d="M 40.5,87.5 C 47.1667,87.5 53.8333,87.5 60.5,87.5C 60.5,97.5 60.5,107.5 60.5,117.5C 53.8333,117.5 47.1667,117.5 40.5,117.5C 40.5,107.5 40.5,97.5 40.5,87.5 Z"/></g>
<g><path style="opacity:1" fill="#fea700" d="M 62.5,87.5 C 75.5,87.5 88.5,87.5 101.5,87.5C 101.5,107.167 101.5,126.833 101.5,146.5C 88.5,146.5 75.5,146.5 62.5,146.5C 62.5,126.833 62.5,107.167 62.5,87.5 Z"/></g>
<g><path style="opacity:1" fill="#fea700" d="M 103.5,87.5 C 109.833,87.5 116.167,87.5 122.5,87.5C 122.5,97.5 122.5,107.5 122.5,117.5C 116.167,117.5 109.833,117.5 103.5,117.5C 103.5,107.5 103.5,97.5 103.5,87.5 Z"/></g>
<g><path style="opacity:1" fill="#fea700" d="M 40.5,118.5 C 47.1667,118.5 53.8333,118.5 60.5,118.5C 60.5,127.833 60.5,137.167 60.5,146.5C 53.8333,146.5 47.1667,146.5 40.5,146.5C 40.5,137.167 40.5,127.833 40.5,118.5 Z"/></g>
<g><path style="opacity:1" fill="#fea700" d="M 103.5,118.5 C 109.833,118.5 116.167,118.5 122.5,118.5C 122.5,127.833 122.5,137.167 122.5,146.5C 116.167,146.5 109.833,146.5 103.5,146.5C 103.5,137.167 103.5,127.833 103.5,118.5 Z"/></g>
<g><path style="opacity:1" fill="#fefffe" d="M -0.5,131.5 C 6.64509,171.644 29.9784,196.644 69.5,206.5C 46.1667,206.5 22.8333,206.5 -0.5,206.5C -0.5,181.5 -0.5,156.5 -0.5,131.5 Z"/></g>
<g><path style="opacity:1" fill="#fefffe" d="M 165.5,133.5 C 165.5,157.833 165.5,182.167 165.5,206.5C 142.167,206.5 118.833,206.5 95.5,206.5C 134.169,196.831 157.503,172.498 165.5,133.5 Z"/></g>
<g><path style="opacity:1" fill="#fea700" d="M 47.5,148.5 C 50.5,148.5 53.5,148.5 56.5,148.5C 56.6653,152.182 56.4986,155.848 56,159.5C 53.6304,155.319 50.7971,151.652 47.5,148.5 Z"/></g>
<g><path style="opacity:1" fill="#fea700" d="M 58.5,148.5 C 62.8333,148.5 67.1667,148.5 71.5,148.5C 71.5,155.833 71.5,163.167 71.5,170.5C 67.1667,170.5 62.8333,170.5 58.5,170.5C 58.5,163.167 58.5,155.833 58.5,148.5 Z"/></g>
<g><path style="opacity:1" fill="#fea700" d="M 73.5,148.5 C 78.1667,148.5 82.8333,148.5 87.5,148.5C 87.5,155.833 87.5,163.167 87.5,170.5C 82.8333,170.5 78.1667,170.5 73.5,170.5C 73.5,163.167 73.5,155.833 73.5,148.5 Z"/></g>
<g><path style="opacity:1" fill="#fea700" d="M 89.5,148.5 C 94.5,148.5 99.5,148.5 104.5,148.5C 104.5,155.833 104.5,163.167 104.5,170.5C 99.5,170.5 94.5,170.5 89.5,170.5C 89.5,163.167 89.5,155.833 89.5,148.5 Z"/></g>
<g><path style="opacity:1" fill="#fea700" d="M 106.5,148.5 C 109.85,148.335 113.183,148.502 116.5,149C 112.199,150.785 110.199,153.952 110.5,158.5C 109.167,158.5 107.833,158.5 106.5,158.5C 106.5,155.167 106.5,151.833 106.5,148.5 Z"/></g>
<g><path style="opacity:1" fill="#fea700" d="M 49.5,172.5 C 70.1667,172.5 90.8333,172.5 111.5,172.5C 111.5,176.167 111.5,179.833 111.5,183.5C 90.8333,183.5 70.1667,183.5 49.5,183.5C 49.5,179.833 49.5,176.167 49.5,172.5 Z"/></g>
<g><path style="opacity:1" fill="#fea700" d="M 44.5,185.5 C 69.1667,185.5 93.8333,185.5 118.5,185.5C 118.5,186.833 118.5,188.167 118.5,189.5C 93.8333,189.5 69.1667,189.5 44.5,189.5C 44.5,188.167 44.5,186.833 44.5,185.5 Z"/></g>
</svg>

<svg xmlns="http://www.w3.org/2000/svg" width="166" height="207" style="shape-rendering:geometricPrecision;text-rendering:geometricPrecision;image-rendering:optimizeQuality;fill-rule:evenodd;clip-rule:evenodd"><path style="opacity:1" d="M-.5-.5h166v134c-7.997 38.998-31.331 63.331-70 73h-26c-39.522-9.856-62.855-34.856-70-75V-.5z"/><path style="opacity:1" fill="#fea700" d="M3.5 3.5h25c.167 59.334 0 118.668-.5 178-12.334-13.02-20.334-28.353-24-46-.5-43.999-.667-87.999-.5-132z"/><path style="opacity:1" fill="#002b71" d="M81.5 4.5v2h-4c-.268 1.599.066 2.932 1 4 1.273 4.416 1.94 9.083 2 14a9238.184 9238.184 0 0 1-3 62h-4a11187.226 11187.226 0 0 1-4-66c1.599.268 2.932-.066 4-1-1.184-1.188-1.184-2.355 0-3.5-1.049-.492-2.049-.326-3 .5a13.117 13.117 0 0 1-1-7c-.06-.543-.393-.876-1-1a9.864 9.864 0 0 0-1 6c-4.658-.485-5.992 1.348-4 5.5.948.483 1.948.65 3 .5a1037.455 1037.455 0 0 1-3 66h-5a1026.326 1026.326 0 0 1-2-43h3a6.845 6.845 0 0 1 1-4c-1.189-.929-2.522-1.262-4-1 .475-2.582-.192-4.582-2-6h-1c-.438 2.138-.605 4.471-.5 7-1.388-1.054-2.888-1.22-4.5-.5 1.967 5.1 2.967 10.434 3 16-1.61 10.328-2.276 20.828-2 31.5h-11v62h8c-.262 1.478.071 2.811 1 4a26.578 26.578 0 0 1 8 9 21.12 21.12 0 0 1 1 9h-9v14h-4v7h77v-7h-7v-14h-7v-10h5c-.28-2.772.387-5.272 2-7.5 1.803-.637 3.136-1.803 4-3.5a13.116 13.116 0 0 1 7-1v-62h-10c.263-11.336-.403-22.502-2-33.5l.5-11.5c2.395 1.298 3.562.465 3.5-2.5-.315-3.849-1.648-4.349-4-1.5-1.307-1.723-1.307-3.556 0-5.5-.744-1.039-1.744-1.539-3-1.5-.791 1.81-.791 3.81 0 6h-4v5h3v17c.302 2.56-.032 4.893-1 7-.991 6.813-1.325 13.813-1 21h-6a1469.88 1469.88 0 0 0-2-55.5l.5-12.5c.414.457.914.79 1.5 1a15.685 15.685 0 0 0 2-4 70.746 70.746 0 0 1-4-2c.343-1.983-.323-3.317-2-4-.472 2.031-1.472 3.698-3 5-.876-.13-1.543.203-2 1 .577 2.05 1.91 3.05 4 3v25c-1.543 6.422-2.71 13.089-3.5 20-.5 7.66-.666 15.326-.5 23h-4a1663.073 1663.073 0 0 1-3-75c3.07-.193 4.07-1.527 3-4-3.295 1.324-4.628-.009-4-4h50c.167 60.334 0 120.668-.5 181-23.546 18.772-49.713 23.272-78.5 13.5A85.88 85.88 0 0 1 32 184.5c-.5-60.332-.667-120.666-.5-181 16.744-.318 33.41.015 50 1z"/><path style="opacity:1" fill="#fea700" d="M83.5 3.5c-.628 3.991.705 5.324 4 4-.548 2.032-1.881 3.032-4 3a636.928 636.928 0 0 0 2 64h-7a651.705 651.705 0 0 0 3-64h-3c1.098-.897 1.098-1.73 0-2.5.95-.617 1.782-.45 2.5.5a2.428 2.428 0 0 0 .5-2v-2c.342-.838 1.008-1.172 2-1zM136.5 3.5h25c.167 44.335 0 88.668-.5 133-2.491 10.856-6.491 21.19-12 31a111.557 111.557 0 0 1-12 13c-.5-58.999-.667-118-.5-177z"/><path style="opacity:1" d="M81.5 6.5a2.428 2.428 0 0 1-.5 2c-.718-.95-1.55-1.117-2.5-.5 1.098.77 1.098 1.603 0 2.5-.934-1.068-1.268-2.401-1-4h4z"/><path style="opacity:1" d="M87.5 7.5c1.07 2.473.07 3.807-3 4a1663.073 1663.073 0 0 0 3 75h4c-.166-7.674 0-15.34.5-23 .79-6.911 1.957-13.578 3.5-20a423.951 423.951 0 0 0-2 34h6c.437-4.861-.063-9.528-1.5-14-.5-15.663-.667-31.33-.5-47-1.983.343-3.317-.323-4-2 1.528-1.302 2.528-2.969 3-5-.343 1.983.323 3.317 2 4a70.746 70.746 0 0 0 4 2 15.685 15.685 0 0 1-2 4 3.646 3.646 0 0 1-1.5-1L98.5 31a1469.88 1469.88 0 0 1 2 55.5h6c-.325-7.187.009-14.187 1-21v14h6a72.368 72.368 0 0 0-.5-12c-1.995-2.797-2.828-5.963-2.5-9.5.605-5.82.938-11.654 1-17.5 4.775-.17 5.108-1.17 1-3 2.352-2.849 3.685-2.349 4 1.5.062 2.965-1.105 3.798-3.5 2.5l-.5 11.5c1.597 10.998 2.263 22.164 2 33.5h10v62a13.116 13.116 0 0 0-7 1c-.864 1.697-2.197 2.863-4 3.5-1.613 2.228-2.28 4.728-2 7.5h-5v10h7v14h7v7h-77v-7h4v-14h9a21.12 21.12 0 0 0-1-9 26.578 26.578 0 0 0-8-9c-.929-1.189-1.262-2.522-1-4h-8v-62h11c-.276-10.672.39-21.172 2-31.5-.033-5.566-1.033-10.9-3-16 1.612-.72 3.112-.554 4.5.5-.105-2.529.062-4.862.5-7-.13.876.203 1.543 1 2 .963-.47.963-1.136 0-2 1.808 1.418 2.475 3.418 2 6 1.478-.262 2.811.071 4 1a6.845 6.845 0 0 0-1 4h-3a1026.326 1026.326 0 0 0 2 43h5a1037.455 1037.455 0 0 0 3-66 4.932 4.932 0 0 1-3-.5c-1.992-4.152-.658-5.985 4-5.5a9.864 9.864 0 0 1 1-6c.607.124.94.457 1 1-.968 2.107-1.302 4.44-1 7-1.788-.285-3.455.048-5 1 1.189.929 2.522 1.262 4 1 .437 19.83-.23 39.497-2 59h6a542.852 542.852 0 0 1-3-45l1-14a6.845 6.845 0 0 0 4 1c-1.068.934-2.401 1.268-4 1 1.275 22.117 2.609 44.117 4 66h4a9238.184 9238.184 0 0 0 3-62c-.06-4.917-.727-9.584-2-14h3a651.705 651.705 0 0 1-3 64h7a636.928 636.928 0 0 1-2-64c2.119.032 3.452-.968 4-3z"/><path style="opacity:1" fill="#fea700" d="M69.5 9.5a13.117 13.117 0 0 0 1 7c.951-.826 1.951-.992 3-.5-1.184 1.145-1.184 2.312 0 3.5a6.845 6.845 0 0 1-4-1l-1 14a542.852 542.852 0 0 0 3 45h-6a524.319 524.319 0 0 0 2-59c-1.478.262-2.811-.071-4-1 1.545-.952 3.212-1.285 5-1-.302-2.56.032-4.893 1-7zM96.5 9.5c1.677.683 2.343 2.017 2 4-1.677-.683-2.343-2.017-2-4zM93.5 14.5c.683 1.677 2.017 2.343 4 2-.167 15.67 0 31.337.5 47 1.437 4.472 1.937 9.139 1.5 14h-6c.215-11.416.881-22.75 2-34v-25c-2.09.05-3.423-.95-4-3 .457-.797 1.124-1.13 2-1z"/><path style="opacity:1" d="M109.5 30.5a21.434 21.434 0 0 1 1 7h-4v3h3c.323 6.19-.01 12.19-1 18v-17h-3v-5h4c-.791-2.19-.791-4.19 0-6z"/><path style="opacity:1" fill="#fea700" d="M109.5 30.5c1.256-.039 2.256.461 3 1.5-1.307 1.944-1.307 3.777 0 5.5 4.108 1.83 3.775 2.83-1 3a188.517 188.517 0 0 1-1 17.5c-.328 3.537.505 6.703 2.5 9.5.499 3.986.666 7.986.5 12h-6v-14c.968-2.107 1.302-4.44 1-7 .99-5.81 1.323-11.81 1-18h-3v-3h4a21.434 21.434 0 0 0-1-7zM53.5 32.5h1c.963.864.963 1.53 0 2-.797-.457-1.13-1.124-1-2zM50.5 39.5c2.647.573 5.313 1.24 8 2-.825.886-1.825 1.219-3 1-.272 12.836.395 25.502 2 38h-7c1.1-8.754 2.1-17.587 3-26.5L53 42.5c-.414.457-.914.79-1.5 1-.929-1.189-1.262-2.522-1-4zM78.5 76.5h7v10h-7v-10zM65.5 78.5h6v8h-6v-8zM93.5 79.5h6v7h-6v-7zM107.5 80.5h6v6h-6v-6zM50.5 81.5h7v5h-7v-5zM40.5 87.5h20v30h-20v-30zM62.5 87.5h39v59h-39v-59zM103.5 87.5h19v30h-19v-30zM40.5 118.5h20v28h-20v-28zM103.5 118.5h19v28h-19v-28z"/><path style="opacity:1" fill="#fefffe" d="M-.5 131.5c7.145 40.144 30.478 65.144 70 75h-70v-75zM165.5 133.5v73h-70c38.669-9.669 62.003-34.002 70-73z"/><path style="opacity:1" fill="#fea700" d="M47.5 148.5h9a60.94 60.94 0 0 1-.5 11c-2.37-4.181-5.203-7.848-8.5-11zM58.5 148.5h13v22h-13v-22zM73.5 148.5h14v22h-14v-22zM89.5 148.5h15v22h-15v-22zM106.5 148.5c3.35-.165 6.683.002 10 .5-4.301 1.785-6.301 4.952-6 9.5h-4v-10zM49.5 172.5h62v11h-62v-11zM44.5 185.5h74v4h-74v-4z"/></svg>
